src/images/background-right.svg

<svg width="501" height="622" viewBox="0 0 501 622" fill="none" xmlns="http://www.w3.org/2000/svg"><g opacity=".3"><path d="M199.156 216.67l-99.52-57.495L.001 216.67l99.635 57.495 99.52-57.495z" fill="#4D4DD6"/><path d="M99.635 274.664L0 217.169v114.99l99.635 57.495v-114.99z" fill="#2D2D88"/><path d="M99.634 274.664v114.99l99.52-57.38V217.169l-99.52 57.495z" fill="#4141BA"/><path d="M398.54 217.169l99.636-57.495v114.99l-99.636-57.495z" fill="#4D4DD6"/><path d="M498.176 274.716v114.991l-99.635-57.38V217.221l99.635 57.495zM298.789 159.495v114.99l-99.519-57.379V103.963l-.116-1.963 99.635 57.495z" fill="#2D2D88"/><path d="M298.79 159.442l-99.635-57.495L498.753-71l-.693 115.567-199.27 114.875z" fill="#4D4DD6"/><path d="M298.79 274.433v-114.99l96.287-55.533 103.099-59.342v115.106L298.79 274.433z" fill="#4141BA"/><path d="M199.155 331.661l99.635-57.495 200.194 115.336v115.222L199.155 331.661z" fill="#4D4DD6"/><path d="M199.154 332.211l299.598 172.947 1.848 116.26-301.33-173.87-.116-115.337z" fill="#2D2D88"/></g></svg>

<svg width="501" height="622" viewBox="0 0 501 622" fill="none" xmlns="http://www.w3.org/2000/svg">
    <g opacity="0.3">
        <path d="M199.156 216.67L99.6362 159.175L0.0010376 216.67L99.6362 274.165L199.156 216.67Z" fill="#4D4DD6"/>
        <path d="M99.6351 274.664L0 217.169V332.159L99.6351 389.654V274.664Z" fill="#2D2D88"/>
        <path d="M99.6342 274.664V389.654L199.154 332.274V217.169L99.6342 274.664Z" fill="#4141BA"/>
        <path d="M398.54 217.169L498.176 159.674V274.664L398.54 217.169Z" fill="#4D4DD6"/>
        <path d="M498.176 274.716V389.707L398.541 332.327V217.221L498.176 274.716Z" fill="#2D2D88"/>
        <path d="M298.789 159.495V274.485L199.27 217.106V103.963L199.154 102L298.789 159.495Z" fill="#2D2D88"/>
        <path d="M298.79 159.442L199.155 101.947L498.753 -71L498.06 44.5675L298.79 159.442Z" fill="#4D4DD6"/>
        <path d="M298.79 274.433V159.443L395.077 103.91L498.176 44.568V159.674L298.79 274.433Z" fill="#4141BA"/>
        <path d="M199.155 331.661L298.79 274.166L498.984 389.502V504.724L199.155 331.661Z" fill="#4D4DD6"/>
        <path d="M199.154 332.211L498.752 505.158L500.6 621.418L199.27 447.548L199.154 332.211Z" fill="#2D2D88"/>
    </g>
</svg>
